X: 1
T: a Valse \`a Cinq Temps of sorts
M: 5/4
L: 1/4
K: C
%%indent 200
   Gcd | "C"e2g ec | "G"d2e cB | "Am"A2e cB | A2 :|
|: eee | "C"c2e g/f/e | "G"d2f ed | "Am"c2e dc | "G"B2G"Am"cd | "C"e>dc "G"G2 | "Am"A2 :|
